X:1
T:Clairières dans le ciel
T:Si tout ceci n'est qu'un pauvre rêve
T:Clairières dans le ciel
T:Lili Boulanger
T:6. Si tout ceci n'est qu'un pauvre rêve 
T:Francis Jammes
T:à mon grand ami Mr. TITO RICORDI
T:Creative Commons copyright waiver (CC0 1.0 Universal)
T:Creative Commons copyright waiver (CC0 1.0 Universal)
T:Creative Commons copyright waiver (CC0 1.0 Universal)
C:Lili Boulanger
Z:Francis Jammes
Z:Creative Commons copyright waiver (CC0 1.0 Universal)
%%score ( 1 2 ) 3
L:1/8
Q:1/4=71
M:2/4
K:Ab
V:1 treble nm="Chant\nVoice"
V:2 treble 
V:3 treble nm="Piano"
V:1
"^Assez lent" z4 | z4 |!mf! z"^douloureux et résigné" F F3/2 F/ | F4- | F/ F F/ !tenuto!F3/2 F/ | %5
w: ||Si tout ce-|ci|_ n'est qu'un pau- vre|
 (!tenuto!F>!>(!_D) D2!>)! | z2!mf!!<(! G2- | G!<)! G B2- | B2!<(! G3/2 G/!<)! | %9
w: rê- * ve,|et|_ s'il faut|_ que j'a-|
 =c2- c/ B/ !tenuto!=A/ B/ |!f! =d3/2- d/"^las" G/ G/ G/ =A/ | %11
w: jou- * te dans ma|vi- e, u- ne fois en-|
"^Reprenez le mouvement"!>(! (B3!>)! B) | z F F/ F/ F/!>(! F/!>)! | A4- | A2 D2- | D D (3D D D | %16
w: \- co- re,|la dé- sil- lu- si-|on|_ aux|_ dé- sil- lu- si-|
 C2- C z | z4 |[Q:1/4=80]"^Plus vite" z!p! F2 =E/ E/ | F/ F/!>(! A2!>)! _G | %20
w: ons; _||et si je|dois en- co- re,|
 z!<(! =G/ G/ ^F F/ F/!<)! |!>(! =A2!>)! ^G!mf! z/!>(! c/ | %22
w: par ma som- bre fo-|li- e, cher-|
[Q:1/4=74]"^Un peu calmé"!p! =g3/2!>)! =B/ =d/ d/ c/ d/ | =B2- B/ =d/ c/ d/ | =e2- e/ ^c!mf! e/ | %25
w: \- cher dans la dou- ceur du|vent _ et de la|plui- * e les|
"^âpre" =B2- B/!<(! =A/ !tenuto!=e/ c/!<)! | !>!=g3!<(! !tenuto!f | %27
w: seu- * les vai- nes|voix qui|
 !tenuto!=e2!<)! (3!>!c !>!=d !>!e |[Q:1/4=144]"^Vite"!ff! ^f4- | ^f z z2 | z4 | z4 | %32
w: m'aient en pas- si-|on|_|||
[Q:1/4=52]"^Lent" z2!p! F3/2 F/ | F4 | z2 (F2- |"^plus adouci" F !tenuto!F !tenuto!A !tenuto!B | %36
w: je ne|sais|si|_ je gue- ri-|
 !tenuto!c4) | z4 | z!p!"^tristement tendre" (D!<(! E3/2 F/!<)! ||[M:6/4] G6- G2 F4- | %40
w: rai,||ô mon a-|mi- * e|
 F) z z2 z2 z6 |] %41
w: _|
V:2
 x4 | x4 | x4 | x4 | x4 | x4 | x4 | x4 | x4 | x4 | x4 | x4 | x4 | x4 | x4 | x4 | x4 | x4 | x4 | %19
 x4 | x4 | x4 | x4 | x4 | x4 | x4 | x4 | x4 | x4 | x4 | x4 | x4 | x4 | x4 | x2 F2- | F F E D | C4 | %37
 x4 | x4 ||[M:6/4] x2 x2!>(! x2 x2 x2!>)! x2 | x12 |] %41
V:3
"^Assez lent" z4 | z4 | z4 | z4 | z4 | z4 | z4 | z4 | z4 | z4 | z4 | z4 | z4 | z4 | z4 | z4 | z4 | %17
 z4 |"^Plus vite" z4 | z4 | z4 | z4 |"^Un peu calmé" z4 | z4 | z4 | z4 | z4 | z4 |"^Vite" z4 | z4 | %30
 z4 | z4 |"^Lent" z4 | z4 | z4 | z4 | z4 | z4 | z4 ||[M:6/4] z12 | z12 |] %41

